flaticon/constructions/light-bulb-1.svg

<svg xmlns="http://www.w3.org/2000/svg" width="32" height="32" viewBox="0 0 24 24">
    <path d="M 19.960938 7.28125 C 19.558594 3.480469 16.519531 0.441406 12.761719 0.0390625 C 12.519531 0.0390625 12.28125 0 12 0 C 11.71875 0 11.480469 0.0390625 11.238281 0.0390625 C 7.480469 0.480469 4.441406 3.519531 4.039062 7.28125 C 3.761719 9.839844 4.679688 12.359375 6.519531 14.121094 C 7.519531 15.078125 8.160156 16.199219 8.398438 17.28125 L 8.398438 22 C 8.398438 22.238281 8.558594 22.398438 8.800781 22.398438 L 9.398438 22.398438 L 10.121094 23.359375 C 10.441406 23.761719 10.878906 24 11.398438 24 L 12.601562 24 C 13.121094 24 13.601562 23.761719 13.878906 23.359375 L 14.601562 22.398438 L 15.199219 22.398438 C 15.441406 22.398438 15.601562 22.238281 15.601562 22 L 15.601562 17.28125 C 15.800781 16.199219 16.480469 15.078125 17.480469 14.121094 C 19.320312 12.320312 20.238281 9.839844 19.960938 7.28125 Z M 10.398438 10 L 9.601562 10 C 9.160156 10 8.800781 9.640625 8.800781 9.199219 C 8.800781 8.761719 9.160156 8.398438 9.601562 8.398438 C 10.039062 8.398438 10.398438 8.761719 10.398438 9.199219 Z M 12.800781 16.800781 L 11.199219 16.800781 L 11.199219 10.800781 L 12.800781 10.800781 Z M 14.800781 17.601562 L 14.800781 18.398438 L 13.601562 18.398438 C 13.359375 18.398438 13.199219 18.558594 13.199219 18.800781 C 13.199219 19.039062 13.359375 19.199219 13.601562 19.199219 L 14.800781 19.199219 L 14.800781 20 L 12.398438 20 C 12.160156 20 12 20.160156 12 20.398438 C 12 20.640625 12.160156 20.800781 12.398438 20.800781 L 14.800781 20.800781 L 14.800781 21.601562 L 9.199219 21.601562 L 9.199219 20.800781 L 10.398438 20.800781 C 10.640625 20.800781 10.800781 20.640625 10.800781 20.398438 C 10.800781 20.160156 10.640625 20 10.398438 20 L 9.199219 20 L 9.199219 19.199219 L 11.601562 19.199219 C 11.839844 19.199219 12 19.039062 12 18.800781 C 12 18.558594 11.839844 18.398438 11.601562 18.398438 L 9.199219 18.398438 L 9.199219 17.601562 Z M 13.238281 22.878906 C 13.078125 23.078125 12.839844 23.199219 12.601562 23.199219 L 11.398438 23.199219 C 11.160156 23.199219 10.921875 23.078125 10.761719 22.878906 L 10.398438 22.398438 L 13.601562 22.398438 Z M 16.921875 13.519531 C 15.921875 14.519531 15.199219 15.640625 14.878906 16.800781 L 13.601562 16.800781 L 13.601562 10.800781 L 14.398438 10.800781 C 15.28125 10.800781 16 10.078125 16 9.199219 C 16 8.320312 15.28125 7.601562 14.398438 7.601562 C 13.519531 7.601562 12.800781 8.320312 12.800781 9.199219 L 12.800781 10 L 11.199219 10 L 11.199219 9.199219 C 11.199219 8.320312 10.480469 7.601562 9.601562 7.601562 C 8.71875 7.601562 8 8.320312 8 9.199219 C 8 10.078125 8.71875 10.800781 9.601562 10.800781 L 10.398438 10.800781 L 10.398438 16.800781 L 9.121094 16.800781 C 8.800781 15.640625 8.078125 14.519531 7.078125 13.519531 C 5.398438 11.921875 4.601562 9.679688 4.839844 7.359375 C 5.238281 3.960938 7.960938 1.238281 11.359375 0.839844 C 11.558594 0.839844 11.761719 0.800781 12 0.800781 C 12.238281 0.800781 12.441406 0.839844 12.640625 0.839844 C 16.039062 1.238281 18.800781 3.960938 19.160156 7.359375 C 19.398438 9.679688 18.601562 11.921875 16.921875 13.519531 Z M 13.601562 10 L 13.601562 9.199219 C 13.601562 8.761719 13.960938 8.398438 14.398438 8.398438 C 14.839844 8.398438 15.199219 8.761719 15.199219 9.199219 C 15.199219 9.640625 14.839844 10 14.398438 10 Z M 13.601562 10"/>
</svg>

<svg xmlns="http://www.w3.org/2000/svg" width="32" height="32" viewBox="0 0 24 24">
    <path d="M19.96 7.281c-.401-3.8-3.44-6.84-7.198-7.242C12.52.04 12.282 0 12 0c-.281 0-.52.04-.762.04C7.48.48 4.441 3.52 4.04 7.28a8.225 8.225 0 0 0 2.48 6.84c1 .957 1.641 2.078 1.88 3.16V22c0 .238.16.398.402.398h.597l.723.961c.32.403.758.641 1.277.641h1.204c.52 0 1-.238 1.277-.64l.723-.962h.597c.242 0 .403-.16.403-.398v-4.719c.199-1.082.878-2.203 1.878-3.16 1.84-1.8 2.758-4.281 2.48-6.84zM10.399 10h-.796c-.442 0-.801-.36-.801-.8 0-.438.36-.802.8-.802.438 0 .797.364.797.801zm2.403 6.8h-1.602v-6h1.602zm2 .802v.796h-1.2c-.242 0-.402.16-.402.403 0 .238.16.398.403.398H14.8V20h-2.403c-.238 0-.398.16-.398.398 0 .243.16.403.398.403h2.403v.8H9.199v-.8h1.2c.242 0 .402-.16.402-.403 0-.238-.16-.398-.403-.398H9.2v-.8h2.403c.238 0 .398-.16.398-.4 0-.241-.16-.402-.398-.402H9.199v-.796zm-1.563 5.277c-.16.2-.398.32-.636.32h-1.204a.834.834 0 0 1-.636-.32l-.364-.48h3.204zm3.684-9.36c-1 1-1.723 2.122-2.043 3.282h-1.277v-6h.796c.883 0 1.602-.723 1.602-1.602 0-.879-.719-1.597-1.602-1.597-.878 0-1.597.718-1.597 1.597V10h-1.602v-.8c0-.88-.719-1.598-1.597-1.598C8.719 7.602 8 8.32 8 9.199c0 .88.719 1.602 1.602 1.602h.796v6H9.121c-.32-1.16-1.043-2.281-2.043-3.281-1.68-1.598-2.476-3.84-2.238-6.16.398-3.4 3.12-6.122 6.52-6.52.199 0 .402-.04.64-.04s.441.04.64.04c3.4.398 6.16 3.12 6.52 6.52.238 2.32-.558 4.562-2.238 6.16zM13.602 10v-.8c0-.438.359-.802.796-.802.442 0 .801.364.801.801 0 .442-.36.801-.8.801zm0 0"/>
</svg>
